icons/editor-delete-filled.svg

<svg width="25" height="24" viewBox="0 0 25 24" fill="none" xmlns="http://www.w3.org/2000/svg">
<g id="delete">
<path id="Icon" d="M11.4704 9.84L14.0304 12.4M14.0304 12.4L16.5904 14.96M14.0304 12.4L16.5904 9.84M14.0304 12.4L11.4704 14.96M7.97271 18.8L21.0704 18.8C21.7773 18.8 22.3504 18.2269 22.3504 17.52V7.28C22.3504 6.57308 21.7773 6 21.0704 6L7.97272 6L3.60383 11.7982C3.33537 12.1545 3.33537 12.6455 3.60383 13.0018L7.97271 18.8Z" stroke="black" stroke-width="2" stroke-linecap="round" stroke-linejoin="round"/>
</g>
</svg>

<svg xmlns="http://www.w3.org/2000/svg" width="25" height="24" fill="none" viewBox="0 0 25 24"><path stroke="currentColor" stroke-linecap="round" stroke-linejoin="round" stroke-width="2" d="m11.47 9.84 2.56 2.56m0 0 2.56 2.56m-2.56-2.56 2.56-2.56m-2.56 2.56-2.56 2.56M7.973 18.8H21.07a1.28 1.28 0 0 0 1.28-1.28V7.28A1.28 1.28 0 0 0 21.07 6H7.973l-4.37 5.798a1 1 0 0 0 0 1.204z"/></svg>
